svg/monochrome/check-square.svg

<svg xmlns="http://www.w3.org/2000/svg" viewBox="0 0 24 24"><path class="uim-primary" d="M10.2002,16.3999a.99676.99676,0,0,1-.707-.293L6.293,12.90723A.99989.99989,0,0,1,7.707,11.49316l2.49317,2.49268L16.293,7.89307A.99989.99989,0,0,1,17.707,9.30713l-6.7998,6.7998A.99676.99676,0,0,1,10.2002,16.3999Z"/><path class="uim-tertiary" d="M21,2H3A1,1,0,0,0,2,3V21a1,1,0,0,0,1,1H21a1,1,0,0,0,1-1V3A1,1,0,0,0,21,2ZM17.707,9.30713l-6.7998,6.7998a.99964.99964,0,0,1-1.41407,0L6.293,12.90723A.99989.99989,0,0,1,7.707,11.49316l2.49317,2.49268L16.293,7.89307A.99989.99989,0,0,1,17.707,9.30713Z"/></svg>

<svg xmlns="http://www.w3.org/2000/svg" viewBox="0 0 24 24"><path class="uim-primary" d="M10.2 16.4a.997.997 0 0 1-.707-.293l-3.2-3.2a1 1 0 0 1 1.414-1.414l2.493 2.493 6.093-6.093a1 1 0 0 1 1.414 1.414l-6.8 6.8a.997.997 0 0 1-.707.293Z"/><path class="uim-tertiary" d="M21 2H3a1 1 0 0 0-1 1v18a1 1 0 0 0 1 1h18a1 1 0 0 0 1-1V3a1 1 0 0 0-1-1Zm-3.293 7.307-6.8 6.8a1 1 0 0 1-1.414 0l-3.2-3.2a1 1 0 0 1 1.414-1.414l2.493 2.493 6.093-6.093a1 1 0 0 1 1.414 1.414Z"/></svg>
